_includes/icons/ios-witch.svg

<svg fill="#666" height="50" viewBox="0 0 50 50" width="50" xmlns="http://www.w3.org/2000/svg"><path d="m30 4c-9.886719 0-15.660156 14.746094-18.867187 28.59375-4.738282 1.3125-8.132813 3.300781-8.132813 5.90625 0 4.898438 11.300781 7.5 22 7.5s22-2.601562 22-7.5c0-2.695312-3.472656-4.6875-8.375-5.921875-2.902344-10.300781-7.125-19.488281-7.125-19.578125l-.199219-.402344c-.101562-.296875-.101562-.898437.101563-1.195312.097656-.101563.199219-.402344.597656-.402344 1.898438 0 2 3.199219 2 4.097656 0 1.101563.898438 1.902344 2 1.902344.800781 0 1.5-.398437 1.800781-1 1.5-2.601562 1.5-6.199219.296875-8.199219-1-1.699218-3.199218-3.800781-8.097656-3.800781zm0 2c3.101563 0 5.300781 1 6.402344 2.800781 1.097656 2 .597656 4.5-.304688 6.199219 0-3.699219-1.5-6-4-6-.898437 0-1.695312.398438-2.195312 1.097656-.703125 1-.601563 2.300782-.304688 3.101563.101563.300781.203125.5.304688.601562.183594.464844 4.242187 9.503907 7.066406 19.609375-2.464844.757813-6.304687 1.589844-11.96875 1.589844-5.574219 0-9.5-.785156-11.992187-1.589844 4.007812-17.726562 9.992187-27.410156 16.992187-27.410156zm-19.402344 28.8125c-.21875 1.109375-.449218 2.242188-.597656 2.988281l-.101562.699219s4.5 2.5 15.101562 2.5c10.398438 0 15.199219-2.5 15.199219-2.5l-.199219-.800781c-.222656-.894531-.460937-1.867188-.730469-2.871094 3.660157 1.074219 5.730469 2.492188 5.730469 3.671875 0 2.300781-7.601562 5.5-20 5.5-12.398437 0-20-3.199219-20-5.5 0-1.183594 2.003906-2.609375 5.597656-3.6875zm2 .589844c2.601563.796875 6.703125 1.597656 12.402344 1.597656s9.699219-.800781 12.300781-1.597656c.199219.597656.398438 1.296875.5 1.898437-2.699218.800782-6.902343 1.699219-12.800781 1.699219-5.898437 0-10.101562-.898437-12.800781-1.699219.101562-.601562.199219-1.199218.398437-1.898437z"/></svg>

<svg xmlns="http://www.w3.org/2000/svg" viewBox="0 0 50 50" width="50" height="50" fill="#666"><path d="M 30 4 C 20.113281 4 14.339844 18.746094 11.132813 32.59375 C 6.394531 33.90625 3 35.894531 3 38.5 C 3 43.398438 14.300781 46 25 46 C 35.699219 46 47 43.398438 47 38.5 C 47 35.804688 43.527344 33.8125 38.625 32.578125 C 35.722656 22.277344 31.5 13.089844 31.5 13 L 31.300781 12.597656 C 31.199219 12.300781 31.199219 11.699219 31.402344 11.402344 C 31.5 11.300781 31.601563 11 32 11 C 33.898438 11 34 14.199219 34 15.097656 C 34 16.199219 34.898438 17 36 17 C 36.800781 17 37.5 16.601563 37.800781 16 C 39.300781 13.398438 39.300781 9.800781 38.097656 7.800781 C 37.097656 6.101563 34.898438 4 30 4 Z M 30 6 C 33.101563 6 35.300781 7 36.402344 8.800781 C 37.5 10.800781 37 13.300781 36.097656 15 C 36.097656 11.300781 34.597656 9 32.097656 9 C 31.199219 9 30.402344 9.398438 29.902344 10.097656 C 29.199219 11.097656 29.300781 12.398438 29.597656 13.199219 C 29.699219 13.5 29.800781 13.699219 29.902344 13.800781 C 30.085938 14.265625 34.144531 23.304688 36.96875 33.410156 C 34.503906 34.167969 30.664063 35 25 35 C 19.425781 35 15.5 34.214844 13.007813 33.410156 C 17.015625 15.683594 23 6 30 6 Z M 10.597656 34.8125 C 10.378906 35.921875 10.148438 37.054688 10 37.800781 L 9.898438 38.5 C 9.898438 38.5 14.398438 41 25 41 C 35.398438 41 40.199219 38.5 40.199219 38.5 L 40 37.699219 C 39.777344 36.804688 39.539063 35.832031 39.269531 34.828125 C 42.929688 35.902344 45 37.320313 45 38.5 C 45 40.800781 37.398438 44 25 44 C 12.601563 44 5 40.800781 5 38.5 C 5 37.316406 7.003906 35.890625 10.597656 34.8125 Z M 12.597656 35.402344 C 15.199219 36.199219 19.300781 37 25 37 C 30.699219 37 34.699219 36.199219 37.300781 35.402344 C 37.5 36 37.699219 36.699219 37.800781 37.300781 C 35.101563 38.101563 30.898438 39 25 39 C 19.101563 39 14.898438 38.101563 12.199219 37.300781 C 12.300781 36.699219 12.398438 36.101563 12.597656 35.402344 Z"/></svg>
